src/images/NewsExplorer.svg

<svg width="134" height="20" viewBox="0 0 134 20" fill="none" xmlns="http://www.w3.org/2000/svg">
<path d="M15.0781 1.51416V3.23291L13.5547 3.52588V15.7329H10.7129L4.9707 6.1626L4.91211 6.17236V13.731L6.43555 14.0239V15.7329H0.546875V14.0239L2.06055 13.731V3.52588L0.546875 3.23291V1.51416H2.06055H4.91211L10.6543 11.0845L10.7129 11.0747V3.52588L9.18945 3.23291V1.51416H13.5547H15.0781ZM21.123 15.938C19.5996 15.938 18.3822 15.4497 17.4707 14.4731C16.5592 13.4966 16.1035 12.2563 16.1035 10.7524V10.3618C16.1035 8.79281 16.5332 7.50049 17.3926 6.48486C18.2585 5.46924 19.4173 4.96468 20.8691 4.97119C22.2949 4.97119 23.4017 5.40088 24.1895 6.26025C24.9772 7.11963 25.3711 8.28174 25.3711 9.74658V11.2993H19.0625L19.043 11.3579C19.0951 12.0545 19.3262 12.6274 19.7363 13.0767C20.153 13.5259 20.7161 13.7505 21.4258 13.7505C22.0573 13.7505 22.5814 13.6886 22.998 13.5649C23.4147 13.4347 23.8704 13.2329 24.3652 12.9595L25.1367 14.7173C24.7005 15.0623 24.1341 15.3521 23.4375 15.5864C22.7474 15.8208 21.9759 15.938 21.123 15.938ZM20.8691 7.16846C20.3418 7.16846 19.9251 7.37028 19.6191 7.77393C19.3132 8.17757 19.1243 8.70817 19.0527 9.36572L19.082 9.41455H22.5781V9.16064C22.5781 8.55518 22.4349 8.0734 22.1484 7.71533C21.8685 7.35075 21.4421 7.16846 20.8691 7.16846ZM41.7871 6.88525L40.7227 7.02197L38.5156 15.7329H36.1328L34.1699 9.44385H34.1113L32.1484 15.7329H29.7754L27.5586 7.02197L26.4941 6.88525V5.1665H31.2793V6.88525L30.1562 7.1001L31.1523 11.9341H31.2109L33.1836 5.1665H35.0977L37.0898 11.9536H37.1484L38.1348 7.10986L37.002 6.88525V5.1665H41.7871V6.88525ZM51.3867 8.79932H49.4727L49.1699 7.48096C48.9746 7.32471 48.7272 7.1945 48.4277 7.09033C48.1348 6.98617 47.8092 6.93408 47.4512 6.93408C46.9499 6.93408 46.5527 7.04801 46.2598 7.27588C45.9668 7.49723 45.8203 7.77718 45.8203 8.11572C45.8203 8.43473 45.9603 8.70166 46.2402 8.9165C46.5202 9.12484 47.0801 9.31038 47.9199 9.47314C49.2285 9.73356 50.1986 10.1177 50.8301 10.6255C51.4616 11.1268 51.7773 11.8201 51.7773 12.7056C51.7773 13.6561 51.3672 14.4341 50.5469 15.0396C49.7331 15.6385 48.6589 15.938 47.3242 15.938C46.5104 15.938 45.7617 15.8208 45.0781 15.5864C44.401 15.3455 43.7988 15.0037 43.2715 14.561L43.2422 12.188H45.2344L45.625 13.5649C45.7943 13.7082 46.0254 13.8156 46.3184 13.8872C46.6113 13.9523 46.9173 13.9849 47.2363 13.9849C47.8158 13.9849 48.2552 13.8807 48.5547 13.6724C48.8607 13.464 49.0137 13.1808 49.0137 12.8228C49.0137 12.5103 48.8607 12.2401 48.5547 12.0122C48.2487 11.7843 47.6855 11.5825 46.8652 11.4067C45.6217 11.1528 44.681 10.7785 44.043 10.2837C43.4115 9.78239 43.0957 9.10205 43.0957 8.24268C43.0957 7.35726 43.4603 6.59554 44.1895 5.95752C44.9186 5.31299 45.957 4.99072 47.3047 4.99072C48.125 4.99072 48.8997 5.1014 49.6289 5.32275C50.3646 5.54411 50.9408 5.82731 51.3574 6.17236L51.3867 8.79932ZM62.168 9.48291H57.3535V13.5454H61.9434L62.0703 11.8462H64.2383V15.7329H52.9883V14.0239L54.502 13.731V3.52588L52.9883 3.23291V1.51416H54.502H64.2188V5.41064H62.0312L61.9043 3.71143H57.3535V7.28564H62.168V9.48291ZM65.5273 14.0239L66.5137 13.8677L69.3848 10.3911L66.6113 7.05127L65.625 6.88525V5.1665H70.3809V6.81689L69.4141 6.93408L71.0156 8.96533L72.5879 6.93408L71.6016 6.81689V5.1665H76.377V6.88525L75.4199 7.05127L72.7051 10.3911L75.5664 13.8677L76.5625 14.0239V15.7329H71.7285V14.0923L72.6953 13.9751L71.0547 11.8462L69.3848 13.9849L70.2344 14.0923V15.7329H65.5273V14.0239ZM77.2559 6.88525V5.1665H81.3965L81.5332 6.39697C81.8457 5.94124 82.2201 5.58968 82.6562 5.34229C83.0924 5.09489 83.6003 4.97119 84.1797 4.97119C85.4883 4.97119 86.5039 5.48226 87.2266 6.50439C87.9492 7.52653 88.3105 8.87093 88.3105 10.5376V10.7427C88.3105 12.3052 87.9492 13.5617 87.2266 14.5122C86.5039 15.4627 85.4948 15.938 84.1992 15.938C83.6458 15.938 83.1543 15.8371 82.7246 15.6353C82.2949 15.4269 81.9271 15.1242 81.6211 14.7271V17.7837L82.998 18.0767V19.7954H77.4023V18.0767L78.7793 17.7837V7.17822L77.2559 6.88525ZM85.459 10.5376C85.459 9.5415 85.293 8.73421 84.9609 8.11572C84.6289 7.49723 84.1211 7.18799 83.4375 7.18799C83.0078 7.18799 82.64 7.27588 82.334 7.45166C82.0345 7.62744 81.7969 7.87809 81.6211 8.20361V12.8325C81.7969 13.132 82.0345 13.3599 82.334 13.5161C82.64 13.6724 83.0143 13.7505 83.457 13.7505C84.1471 13.7505 84.6517 13.4803 84.9707 12.9399C85.2962 12.3996 85.459 11.6672 85.459 10.7427V10.5376ZM89.082 2.21729V0.498535H93.457V13.731L94.834 14.0239V15.7329H89.2285V14.0239L90.6055 13.731V2.51025L89.082 2.21729ZM95.5762 10.3521C95.5762 8.77653 96.0156 7.48747 96.8945 6.48486C97.7799 5.47575 99.0007 4.97119 100.557 4.97119C102.119 4.97119 103.34 5.47249 104.219 6.4751C105.104 7.4777 105.547 8.77002 105.547 10.3521V10.5571C105.547 12.1457 105.104 13.4412 104.219 14.4438C103.34 15.4399 102.126 15.938 100.576 15.938C99.0072 15.938 97.7799 15.4399 96.8945 14.4438C96.0156 13.4412 95.5762 12.1457 95.5762 10.5571V10.3521ZM98.4277 10.5571C98.4277 11.5207 98.597 12.2954 98.9355 12.8813C99.2741 13.4608 99.821 13.7505 100.576 13.7505C101.312 13.7505 101.849 13.4575 102.188 12.8716C102.533 12.2856 102.705 11.5142 102.705 10.5571V10.3521C102.705 9.41455 102.533 8.64958 102.188 8.05713C101.842 7.46468 101.299 7.16846 100.557 7.16846C99.8145 7.16846 99.2741 7.46468 98.9355 8.05713C98.597 8.64958 98.4277 9.41455 98.4277 10.3521V10.5571ZM107.002 14.0239L108.369 13.731V7.17822L106.855 6.88525V5.1665H111.025L111.152 6.70947C111.4 6.1626 111.719 5.73617 112.109 5.43018C112.5 5.12419 112.952 4.97119 113.467 4.97119C113.617 4.97119 113.773 4.98421 113.936 5.01025C114.105 5.02979 114.245 5.05583 114.355 5.08838L114.053 7.68604L112.881 7.65674C112.464 7.65674 112.119 7.73812 111.846 7.90088C111.572 8.06364 111.364 8.29476 111.221 8.59424V13.731L112.588 14.0239V15.7329H107.002V14.0239ZM120.068 15.938C118.545 15.938 117.327 15.4497 116.416 14.4731C115.505 13.4966 115.049 12.2563 115.049 10.7524V10.3618C115.049 8.79281 115.479 7.50049 116.338 6.48486C117.204 5.46924 118.363 4.96468 119.814 4.97119C121.24 4.97119 122.347 5.40088 123.135 6.26025C123.923 7.11963 124.316 8.28174 124.316 9.74658V11.2993H118.008L117.988 11.3579C118.04 12.0545 118.271 12.6274 118.682 13.0767C119.098 13.5259 119.661 13.7505 120.371 13.7505C121.003 13.7505 121.527 13.6886 121.943 13.5649C122.36 13.4347 122.816 13.2329 123.311 12.9595L124.082 14.7173C123.646 15.0623 123.079 15.3521 122.383 15.5864C121.693 15.8208 120.921 15.938 120.068 15.938ZM119.814 7.16846C119.287 7.16846 118.87 7.37028 118.564 7.77393C118.258 8.17757 118.07 8.70817 117.998 9.36572L118.027 9.41455H121.523V9.16064C121.523 8.55518 121.38 8.0734 121.094 7.71533C120.814 7.35075 120.387 7.16846 119.814 7.16846ZM125.889 14.0239L127.256 13.731V7.17822L125.742 6.88525V5.1665H129.912L130.039 6.70947C130.286 6.1626 130.605 5.73617 130.996 5.43018C131.387 5.12419 131.839 4.97119 132.354 4.97119C132.503 4.97119 132.66 4.98421 132.822 5.01025C132.992 5.02979 133.132 5.05583 133.242 5.08838L132.939 7.68604L131.768 7.65674C131.351 7.65674 131.006 7.73812 130.732 7.90088C130.459 8.06364 130.251 8.29476 130.107 8.59424V13.731L131.475 14.0239V15.7329H125.889V14.0239Z" fill="white"/>
</svg>

<svg width="134" height="20" fill="none" xmlns="http://www.w3.org/2000/svg"><path d="M15.078 1.514v1.719l-1.523.293v12.207h-2.842L4.97 6.163l-.059.01v7.558l1.524.293v1.709H.546v-1.71l1.515-.292V3.526L.547 3.233V1.514h4.365l5.742 9.57.059-.01V3.527l-1.524-.293V1.514H15.078zm6.045 14.424c-1.523 0-2.74-.488-3.652-1.465-.912-.976-1.367-2.217-1.367-3.72v-.391c0-1.57.43-2.862 1.289-3.877.866-1.016 2.024-1.52 3.476-1.514 1.426 0 2.533.43 3.32 1.29.788.859 1.182 2.02 1.182 3.486v1.552h-6.308l-.02.059c.052.697.283 1.27.693 1.719.417.449.98.674 1.69.674.631 0 1.155-.062 1.572-.186.417-.13.872-.332 1.367-.605l.772 1.757c-.436.345-1.003.635-1.7.87-.69.234-1.461.351-2.314.351zm-.254-8.77c-.527 0-.944.202-1.25.606-.306.404-.495.934-.566 1.592l.029.049h3.496V9.16c0-.606-.143-1.088-.43-1.446-.28-.364-.706-.547-1.279-.547zm20.918-.283-1.064.137-2.207 8.71h-2.383L34.17 9.445h-.059l-1.963 6.289h-2.373L27.56 7.022l-1.065-.137V5.167h4.785v1.718l-1.123.215.996 4.834h.059l1.973-6.767h1.914l1.992 6.787h.058l.987-4.844-1.133-.225V5.167h4.785v1.718zm9.6 1.914h-1.914l-.303-1.318a2.487 2.487 0 0 0-.742-.39 2.899 2.899 0 0 0-.977-.157c-.501 0-.898.114-1.191.342-.293.221-.44.501-.44.84 0 .319.14.586.42.8.28.209.84.394 1.68.557 1.308.26 2.279.645 2.91 1.152.632.502.947 1.195.947 2.08 0 .951-.41 1.73-1.23 2.335-.814.599-1.888.898-3.223.898a6.885 6.885 0 0 1-2.246-.352 5.813 5.813 0 0 1-1.806-1.025l-.03-2.373h1.992l.391 1.377c.17.143.4.25.693.322.293.065.6.098.918.098.58 0 1.02-.104 1.319-.313.306-.208.459-.491.459-.85 0-.312-.153-.582-.46-.81-.305-.228-.869-.43-1.689-.605-1.243-.254-2.184-.629-2.822-1.123-.632-.502-.947-1.182-.947-2.041 0-.886.364-1.647 1.094-2.285.729-.645 1.767-.967 3.115-.967.82 0 1.595.11 2.324.332.736.221 1.312.504 1.728.85l.03 2.626zm10.781.684h-4.815v4.062h4.59l.127-1.699h2.168v3.887h-11.25v-1.71l1.514-.292V3.526l-1.514-.293V1.514H64.22v3.897H62.03l-.127-1.7h-4.55v3.575h4.814v2.197zm3.36 4.54.986-.155 2.87-3.477-2.773-3.34-.986-.166V5.167h4.756v1.65l-.967.117 1.602 2.031 1.572-2.03-.986-.118v-1.65h4.775v1.718l-.957.166-2.715 3.34 2.861 3.477.996.156v1.709h-4.834v-1.64l.967-.118-1.64-2.129-1.67 2.139.85.107v1.64h-4.708v-1.708zm11.728-7.138V5.167h4.14l.137 1.23a3.388 3.388 0 0 1 1.123-1.055c.436-.247.944-.37 1.524-.37 1.308 0 2.324.51 3.047 1.532.722 1.023 1.084 2.367 1.084 4.034v.205c0 1.562-.362 2.819-1.084 3.77-.723.95-1.732 1.425-3.028 1.425-.553 0-1.045-.1-1.474-.303a3.077 3.077 0 0 1-1.104-.908v3.057l1.377.293v1.718h-5.596v-1.718l1.377-.293V7.178l-1.523-.293zm8.203 3.653c0-.997-.166-1.804-.498-2.422-.332-.619-.84-.928-1.523-.928-.43 0-.798.088-1.104.264-.3.175-.537.426-.713.752v4.628c.176.3.413.528.713.684.306.156.68.235 1.123.235.69 0 1.195-.27 1.514-.811.325-.54.488-1.273.488-2.197v-.205zm3.623-8.32V.497h4.375v13.233l1.377.293v1.709h-5.606v-1.71l1.378-.292V2.511l-1.524-.294zm6.494 8.134c0-1.575.44-2.865 1.319-3.867.885-1.01 2.106-1.514 3.662-1.514 1.562 0 2.783.501 3.662 1.504.885 1.003 1.328 2.295 1.328 3.877v.205c0 1.589-.443 2.884-1.328 3.887-.879.996-2.093 1.494-3.643 1.494-1.569 0-2.796-.498-3.681-1.494-.88-1.003-1.319-2.298-1.319-3.887v-.205zm2.852.205c0 .964.169 1.738.508 2.324.338.58.885.87 1.64.87.736 0 1.273-.293 1.612-.88.345-.585.517-1.357.517-2.314v-.205c0-.937-.172-1.702-.517-2.295-.346-.592-.889-.889-1.631-.889-.743 0-1.283.297-1.621.89-.339.592-.508 1.357-.508 2.294v.205zm8.574 3.467 1.367-.293V7.178l-1.514-.293V5.167h4.17l.127 1.542c.248-.546.567-.973.957-1.279a2.14 2.14 0 0 1 1.358-.459c.15 0 .306.013.469.04.169.019.309.045.419.077l-.302 2.598-1.172-.03c-.417 0-.762.082-1.035.245a1.573 1.573 0 0 0-.625.693v5.137l1.367.293v1.709h-5.586v-1.71zm13.066 1.914c-1.523 0-2.741-.488-3.652-1.465-.911-.976-1.367-2.217-1.367-3.72v-.391c0-1.57.43-2.862 1.289-3.877.866-1.016 2.025-1.52 3.476-1.514 1.426 0 2.533.43 3.321 1.29.788.859 1.181 2.02 1.181 3.486v1.552h-6.308l-.02.059c.052.697.283 1.27.694 1.719.416.449.979.674 1.689.674.632 0 1.156-.062 1.572-.186.417-.13.873-.332 1.368-.605l.771 1.757c-.436.345-1.003.635-1.699.87-.69.234-1.462.351-2.315.351zm-.254-8.77c-.527 0-.944.202-1.25.606-.306.404-.494.934-.566 1.592l.029.049h3.496V9.16c0-.606-.143-1.088-.429-1.446-.28-.364-.707-.547-1.28-.547zm6.075 6.856 1.367-.293V7.178l-1.514-.293V5.167h4.17l.127 1.542c.247-.546.566-.973.957-1.279a2.14 2.14 0 0 1 1.358-.459c.149 0 .306.013.468.04.17.019.31.045.42.077l-.303 2.598-1.171-.03c-.417 0-.762.082-1.036.245a1.585 1.585 0 0 0-.625.693v5.137l1.368.293v1.709h-5.586v-1.71z" fill="#fff"/></svg>
